symbols/web/mobile_screen_share/materialsymbolsoutlined/mobile_screen_share_wght100fill1_24px.svg

<svg xmlns="http://www.w3.org/2000/svg" height="24" width="24"><path d="M9.65 14.75V13.5q0-.975.688-1.663.687-.687 1.662-.687h1.25v-1.1l1.45 1.45-1.45 1.45v-1.1H12q-.675 0-1.162.487-.488.488-.488 1.163v1.25ZM7 18.65h10V5.35H7Zm.8 3.05q-.65 0-1.075-.425Q6.3 20.85 6.3 20.2V3.8q0-.65.425-1.075Q7.15 2.3 7.8 2.3h8.4q.65 0 1.075.425.425.425.425 1.075v16.4q0 .65-.425 1.075-.425.425-1.075.425Z"/></svg>

<svg xmlns="http://www.w3.org/2000/svg" height="24" width="24"><path d="M9.65 14.75V13.5Q9.65 12.525 10.338 11.837Q11.025 11.15 12 11.15H13.25V10.05L14.7 11.5L13.25 12.95V11.85H12Q11.325 11.85 10.838 12.337Q10.35 12.825 10.35 13.5V14.75ZM7 18.65H17V5.35H7ZM7.8 21.7Q7.15 21.7 6.725 21.275Q6.3 20.85 6.3 20.2V3.8Q6.3 3.15 6.725 2.725Q7.15 2.3 7.8 2.3H16.2Q16.85 2.3 17.275 2.725Q17.7 3.15 17.7 3.8V20.2Q17.7 20.85 17.275 21.275Q16.85 21.7 16.2 21.7Z"/></svg>
